X: 35435
T: Rover's Return, The
R: barndance
M: 4/4
K: Eminor
B,2|:E3F GFGA|B2e2e3^c|d2B2B2AG|B2F2F2GF|E3F GFGA|
[1B2e2d3c|B2F2G2F2|E4E2B2:|2 B2e2e2g2|f2B2g2f2|e4e2dc||
|:BGBd g2dB|c2A2A3B|cEAc ced^c|d2B2B2dc|
[1BGBd g2dB|c2e2e2cA|^c2a2a2c2|d4d2dc:|
[2BGBd g2dB|AEAB cBAG|B2F2G2F2|E4E2||

